X:536
T: Jgerfreuden (237), S. 509
N: T0424
O: Luxemburg
S: Singendes Volk, Esch-Alzette, 1937 posth.]
N: Esch-Alzette, hhh Eugen Lemmer, 1915
R: Jgerlied]
M: 2/4
L: 1/16
K: F
B2 | B6B2 | A4F4 | G4E4 | F4z4
f6f2 | e4c4 | d4=B4 | c4
c4 | f6e2 | d2e2f2d2 | c4A4
d4c4 | B4A4 | G4ABG2 | F4C2
C2 | F4G4 | A6A2 | c4d2e2 | f4z4
d6d2 | c6A2 | c4B2G2 | F4z2

